client/public/img/game/shared/skins/diseased_fist.svg

<?xml version="1.0" encoding="UTF-8" standalone="no"?>
<!-- Created with Inkscape (http://www.inkscape.org/) -->

<svg
   width="34"
   height="34"
   viewBox="0 0 8.9958334 8.9958334"
   version="1.1"
   id="svg5"
   xmlns="http://www.w3.org/2000/svg"
   xmlns:svg="http://www.w3.org/2000/svg">
  <defs
     id="defs2" />
  <circle
     style="fill:#5c563e;fill-opacity:1;stroke:#2e2b1f;stroke-width:1.05833;stroke-linecap:round;stroke-miterlimit:4;stroke-dasharray:none;stroke-opacity:1"
     id="path292"
     cx="4.4979153"
     cy="4.4979153"
     r="3.96875" />
  <path
     style="color:#000000;fill:#5c563e;fill-opacity:1;fill-rule:evenodd;stroke:#2e2b1f;stroke-width:1.33172;stroke-linecap:round;stroke-linejoin:round;stroke-dasharray:none;stroke-opacity:1"
     d="M 0.70921567,1.8721785 A 1.0526787,1.2377604 19.338895 0 1 2.0609843,0.93309428 C 3.6743519,1.3326408 4.6935802,1.7950928 5.3969888,2.3995858 c 0.7034139,0.6044832 1.0239658,1.4312166 1.132253,2.0369154 0.108294,0.6056964 0.1258198,0.896336 0.1737298,0.9953325 0.047909,0.098996 0.1393122,0.2761351 0.8599561,0.4969756 A 1.0526787,1.2377604 19.338895 0 1 8.193688,7.4154205 1.0526787,1.2377604 19.338895 0 1 6.8109125,8.286164 C 5.8115993,7.9799317 5.1307049,7.4604467 4.7940024,6.7642735 4.4573066,6.0680983 4.4784195,5.4662386 4.4216088,5.1483463 4.3650642,4.8303679 4.3500936,4.7036097 3.9919301,4.3958285 3.6337811,4.0880499 2.8642879,3.678167 1.4037485,3.3164688 A 1.0526787,1.2377604 19.338895 0 1 0.70926866,1.87216 Z"
     id="path57591-1" />
</svg>

<svg xmlns="http://www.w3.org/2000/svg" width="34" height="34" viewBox="0 0 8.996 8.996"><circle cx="4.498" cy="4.498" r="3.969" style="fill:#5c563e;fill-opacity:1;stroke:#2e2b1f;stroke-width:1.05833;stroke-linecap:round;stroke-miterlimit:4;stroke-dasharray:none;stroke-opacity:1"/><path d="M.71 1.872A1.053 1.238 19.339 0 1 2.06.933c1.613.4 2.633.862 3.336 1.467.703.604 1.024 1.43 1.132 2.037.109.605.126.896.174.995s.14.276.86.497a1.053 1.238 19.339 0 1 .63 1.486 1.053 1.238 19.339 0 1-1.382.871c-1-.306-1.68-.826-2.017-1.522s-.316-1.298-.372-1.616c-.057-.318-.072-.444-.43-.752s-1.128-.718-2.588-1.08a1.053 1.238 19.339 0 1-.695-1.444" style="color:#000;fill:#5c563e;fill-opacity:1;fill-rule:evenodd;stroke:#2e2b1f;stroke-width:1.33172;stroke-linecap:round;stroke-linejoin:round;stroke-dasharray:none;stroke-opacity:1"/></svg>
